libs/ui/packages/crypto-icons/src/svg/DATA.svg

<svg width="24" height="24" viewBox="0 0 24 24" fill="none">
<path d="M18.1087 7.43917L19.314 6.24367C19.599 5.96167 19.5397 5.44567 19.1835 5.09242C18.8272 4.73842 18.306 4.68067 18.0217 4.96342L15.7597 7.20592L15.6825 7.28317L13.7115 9.23692C13.0563 8.76447 12.255 8.53918 11.4497 8.60096C10.6443 8.66273 9.88672 9.00758 9.31125 9.57442C8.74051 10.1398 8.39209 10.8915 8.32958 11.6925C8.26707 12.4934 8.49464 13.2901 8.97075 13.9372L7.46625 15.4297C7.07601 14.9096 6.77468 14.3285 6.5745 13.7099C6.06975 12.1814 6.2055 10.5074 7.0245 9.12742C8.30175 6.97492 10.587 6.03892 12.753 6.31342C12.8621 6.32871 12.9731 6.32138 13.0792 6.2919C13.1854 6.26241 13.2843 6.21139 13.3698 6.14202C13.4554 6.07265 13.5257 5.98642 13.5765 5.88868C13.6273 5.79094 13.6574 5.6838 13.665 5.57392C13.6792 5.32181 13.5956 5.07394 13.4316 4.88196C13.2675 4.68999 13.0357 4.56871 12.7845 4.54342C10.6087 4.32067 8.3595 5.03092 6.69825 6.67792C3.94575 9.40642 3.7845 13.7347 6.20325 16.6814L4.82325 18.0502C4.551 18.3202 4.6185 18.8264 4.9755 19.1797C5.33175 19.5329 5.84175 19.6012 6.114 19.3312L7.59975 17.8582H7.6005L8.6745 16.7932L8.67675 16.7902L10.4182 15.0637C11.0375 15.3159 11.7171 15.381 12.373 15.2509C13.0289 15.1208 13.6322 14.8012 14.1082 14.3317C14.5809 13.8641 14.9035 13.2663 15.0351 12.6146C15.1667 11.9629 15.1012 11.2868 14.847 10.6724L16.8225 8.71417C18.2707 10.8952 17.9835 13.9147 15.99 15.8902C15.3905 16.4874 14.6699 16.949 13.8768 17.2438C13.0837 17.5387 12.2365 17.66 11.3925 17.5994C11.2025 17.5885 11.0157 17.6519 10.8715 17.7762C10.7274 17.9004 10.6372 18.0759 10.62 18.2654L10.599 18.5054C10.5896 18.6104 10.6016 18.7162 10.6342 18.8164C10.6669 18.9166 10.7196 19.0091 10.7891 19.0884C10.8586 19.1676 10.9434 19.2319 11.0385 19.2774C11.1336 19.3229 11.2369 19.3486 11.3422 19.3529C12.4241 19.411 13.5062 19.2409 14.5181 18.8538C15.5301 18.4667 16.4493 17.8712 17.2162 17.1059C19.914 14.4307 20.226 10.3102 18.1087 7.43842V7.43917ZM12.858 13.0904C12.5521 13.3918 12.1399 13.5607 11.7105 13.5607C11.2811 13.5607 10.8689 13.3918 10.563 13.0904C10.4128 12.9415 10.2935 12.7644 10.2121 12.5692C10.1308 12.374 10.0889 12.1645 10.0889 11.953C10.0889 11.7415 10.1308 11.5321 10.2121 11.3369C10.2935 11.1417 10.4128 10.9645 10.563 10.8157C10.8688 10.5141 11.281 10.345 11.7105 10.345C12.14 10.345 12.5522 10.5141 12.858 10.8157C13.0082 10.9645 13.1275 11.1417 13.2089 11.3369C13.2902 11.5321 13.3321 11.7415 13.3321 11.953C13.3321 12.1645 13.2902 12.374 13.2089 12.5692C13.1275 12.7644 13.0082 12.9415 12.858 13.0904Z" fill="#E9570F"/>
</svg>

<svg width="24" height="24" viewBox="0 0 24 24" fill="none"><path fill="#e9570f" d="m18.109 7.44 1.205-1.196c.285-.282.226-.798-.13-1.152-.357-.354-.878-.411-1.162-.129L15.76 7.206l-.078.077-1.97 1.954a3.42 3.42 0 0 0-4.4.337 3.35 3.35 0 0 0-.341 4.363L7.466 15.43a5.9 5.9 0 0 1-.892-1.72c-.504-1.529-.369-3.203.45-4.583 1.278-2.152 3.563-3.088 5.729-2.814a.8.8 0 0 0 .912-.74.98.98 0 0 0-.88-1.03 7.53 7.53 0 0 0-6.087 2.135c-2.752 2.728-2.914 7.057-.495 10.003l-1.38 1.37c-.272.27-.205.775.152 1.129.357.353.867.421 1.139.151L7.6 17.858l1.075-1.065.002-.003 1.741-1.726a3.42 3.42 0 0 0 3.69-.732 3.35 3.35 0 0 0 .739-3.66l1.976-1.958c1.448 2.181 1.16 5.2-.833 7.176a5.9 5.9 0 0 1-4.597 1.71.734.734 0 0 0-.773.665l-.021.24a.78.78 0 0 0 .743.848 7.73 7.73 0 0 0 5.874-2.247c2.698-2.675 3.01-6.796.893-9.668zm-5.251 5.65a1.635 1.635 0 0 1-2.295 0 1.6 1.6 0 0 1 0-2.274 1.634 1.634 0 0 1 2.295 0 1.6 1.6 0 0 1 0 2.274"/></svg>
